bernoullicharts/arcsin_x_2_bound.svg

<?xml version="1.0" encoding="utf-8" standalone="no"?>
<!DOCTYPE svg PUBLIC "-//W3C//DTD SVG 1.1//EN"
  "http://www.w3.org/Graphics/SVG/1.1/DTD/svg11.dtd">
<!-- Created with matplotlib (https://matplotlib.org/) -->
<svg height="345.6pt" version="1.1" viewBox="0 0 460.8 345.6" width="460.8pt" xmlns="http://www.w3.org/2000/svg" xmlns:xlink="http://www.w3.org/1999/xlink">
 <defs>
  <style type="text/css">
*{stroke-linecap:butt;stroke-linejoin:round;}
  </style>
 </defs>
 <g id="figure_1">
  <g id="patch_1">
   <path d="M 0 345.6 
L 460.8 345.6 
L 460.8 0 
L 0 0 
z
" style="fill:#ffffff;"/>
  </g>
  <g id="axes_1">
   <g id="patch_2">
    <path d="M 57.6 307.584 
L 414.72 307.584 
L 414.72 41.472 
L 57.6 41.472 
z
" style="fill:#ffffff;"/>
   </g>
   <g id="matplotlib.axis_1">
    <g id="xtick_1">
     <g id="line2d_1">
      <defs>
       <path d="M 0 0 
L 0 3.5 
" id="m2d49245265" style="stroke:#000000;stroke-width:0.8;"/>
      </defs>
      <g>
       <use style="stroke:#000000;stroke-width:0.8;" x="73.800255" xlink:href="#m2d49245265" y="307.584"/>
      </g>
     </g>
     <g id="text_1">
      <text style="font-family:DejaVu Sans;font-size:10px;font-style:normal;font-weight:normal;text-anchor:middle;" transform="rotate(-0, 73.800255, 322.182437)" x="73.800255" y="322.182437">0.0</text>
     </g>
    </g>
    <g id="xtick_2">
     <g id="line2d_2">
      <g>
       <use style="stroke:#000000;stroke-width:0.8;" x="138.744153" xlink:href="#m2d49245265" y="307.584"/>
      </g>
     </g>
     <g id="text_2">
      <text style="font-family:DejaVu Sans;font-size:10px;font-style:normal;font-weight:normal;text-anchor:middle;" transform="rotate(-0, 138.744153, 322.182437)" x="138.744153" y="322.182437">0.2</text>
     </g>
    </g>
    <g id="xtick_3">
     <g id="line2d_3">
      <g>
       <use style="stroke:#000000;stroke-width:0.8;" x="203.688051" xlink:href="#m2d49245265" y="307.584"/>
      </g>
     </g>
     <g id="text_3">
      <text style="font-family:DejaVu Sans;font-size:10px;font-style:normal;font-weight:normal;text-anchor:middle;" transform="rotate(-0, 203.688051, 322.182437)" x="203.688051" y="322.182437">0.4</text>
     </g>
    </g>
    <g id="xtick_4">
     <g id="line2d_4">
      <g>
       <use style="stroke:#000000;stroke-width:0.8;" x="268.631949" xlink:href="#m2d49245265" y="307.584"/>
      </g>
     </g>
     <g id="text_4">
      <text style="font-family:DejaVu Sans;font-size:10px;font-style:normal;font-weight:normal;text-anchor:middle;" transform="rotate(-0, 268.631949, 322.182437)" x="268.631949" y="322.182437">0.6</text>
     </g>
    </g>
    <g id="xtick_5">
     <g id="line2d_5">
      <g>
       <use style="stroke:#000000;stroke-width:0.8;" x="333.575847" xlink:href="#m2d49245265" y="307.584"/>
      </g>
     </g>
     <g id="text_5">
      <text style="font-family:DejaVu Sans;font-size:10px;font-style:normal;font-weight:normal;text-anchor:middle;" transform="rotate(-0, 333.575847, 322.182437)" x="333.575847" y="322.182437">0.8</text>
     </g>
    </g>
    <g id="xtick_6">
     <g id="line2d_6">
      <g>
       <use style="stroke:#000000;stroke-width:0.8;" x="398.519745" xlink:href="#m2d49245265" y="307.584"/>
      </g>
     </g>
     <g id="text_6">
      <text style="font-family:DejaVu Sans;font-size:10px;font-style:normal;font-weight:normal;text-anchor:middle;" transform="rotate(-0, 398.519745, 322.182437)" x="398.519745" y="322.182437">1.0</text>
     </g>
    </g>
    <g id="text_7">
     <text style="font-family:DejaVu Sans;font-size:10px;font-style:normal;font-weight:normal;text-anchor:middle;" transform="rotate(-0, 236.16, 335.860562)" x="236.16" y="335.860562">Input Coin's Heads Probability (λ)</text>
    </g>
   </g>
   <g id="matplotlib.axis_2">
    <g id="ytick_1">
     <g id="line2d_7">
      <defs>
       <path d="M 0 0 
L -3.5 0 
" id="m615b8740d9" style="stroke:#000000;stroke-width:0.8;"/>
      </defs>
      <g>
       <use style="stroke:#000000;stroke-width:0.8;" x="57.6" xlink:href="#m615b8740d9" y="296.660779"/>
      </g>
     </g>
     <g id="text_8">
      <text style="font-family:DejaVu Sans;font-size:10px;font-style:normal;font-weight:normal;text-anchor:end;" transform="rotate(-0, 50.6, 300.459998)" x="50.6" y="300.459998">0</text>
     </g>
    </g>
    <g id="ytick_2">
     <g id="line2d_8">
      <g>
       <use style="stroke:#000000;stroke-width:0.8;" x="57.6" xlink:href="#m615b8740d9" y="242.052823"/>
      </g>
     </g>
     <g id="text_9">
      <text style="font-family:DejaVu Sans;font-size:10px;font-style:normal;font-weight:normal;text-anchor:end;" transform="rotate(-0, 50.6, 245.852041)" x="50.6" y="245.852041">20</text>
     </g>
    </g>
    <g id="ytick_3">
     <g id="line2d_9">
      <g>
       <use style="stroke:#000000;stroke-width:0.8;" x="57.6" xlink:href="#m615b8740d9" y="187.444866"/>
      </g>
     </g>
     <g id="text_10">
      <text style="font-family:DejaVu Sans;font-size:10px;font-style:normal;font-weight:normal;text-anchor:end;" transform="rotate(-0, 50.6, 191.244085)" x="50.6" y="191.244085">40</text>
     </g>
    </g>
    <g id="ytick_4">
     <g id="line2d_10">
      <g>
       <use style="stroke:#000000;stroke-width:0.8;" x="57.6" xlink:href="#m615b8740d9" y="132.83691"/>
      </g>
     </g>
     <g id="text_11">
      <text style="font-family:DejaVu Sans;font-size:10px;font-style:normal;font-weight:normal;text-anchor:end;" transform="rotate(-0, 50.6, 136.636128)" x="50.6" y="136.636128">60</text>
     </g>
    </g>
    <g id="ytick_5">
     <g id="line2d_11">
      <g>
       <use style="stroke:#000000;stroke-width:0.8;" x="57.6" xlink:href="#m615b8740d9" y="78.228953"/>
      </g>
     </g>
     <g id="text_12">
      <text style="font-family:DejaVu Sans;font-size:10px;font-style:normal;font-weight:normal;text-anchor:end;" transform="rotate(-0, 50.6, 82.028172)" x="50.6" y="82.028172">80</text>
     </g>
    </g>
    <g id="text_13">
     <text style="font-family:DejaVu Sans;font-size:10px;font-style:normal;font-weight:normal;text-anchor:middle;" transform="rotate(-90, 31.795312, 174.528)" x="31.795312" y="174.528">Coin Flips Needed</text>
    </g>
   </g>
   <g id="line2d_12">
    <path clip-path="url(#p4e4fb87805)" d="M 73.832727 295.295648 
L 77.112066 295.30246 
L 80.391405 295.309113 
L 83.670744 295.31561 
L 86.950083 295.321956 
L 90.229421 295.328154 
L 93.50876 295.334207 
L 96.788099 295.340118 
L 100.067438 295.345889 
L 103.346777 295.351524 
L 106.626116 295.357024 
L 109.905455 295.362394 
L 113.184793 295.367634 
L 116.464132 295.372748 
L 119.743471 295.377736 
L 123.02281 295.382602 
L 126.302149 295.387347 
L 129.581488 295.391974 
L 132.860826 295.396482 
L 136.140165 295.400876 
L 139.419504 295.405155 
L 142.698843 295.409321 
L 145.978182 295.413376 
L 149.257521 295.41732 
L 152.53686 295.421156 
L 155.816198 295.424883 
L 159.095537 295.428503 
L 162.374876 295.432017 
L 165.654215 295.435425 
L 168.933554 295.438728 
L 172.212893 295.441927 
L 175.492231 295.445022 
L 178.77157 295.448014 
L 182.050909 295.450902 
L 185.330248 295.453687 
L 188.609587 295.456369 
L 191.888926 295.458949 
L 195.168264 295.461425 
L 198.447603 295.463798 
L 201.726942 295.466067 
L 205.006281 295.468232 
L 208.28562 295.470293 
L 211.564959 295.472248 
L 214.844298 295.474096 
L 218.123636 295.475838 
L 221.402975 295.477471 
L 224.682314 295.478994 
L 227.961653 295.480406 
L 231.240992 295.481706 
L 234.520331 295.482891 
L 237.799669 295.483959 
L 241.079008 295.484909 
L 244.358347 295.485738 
L 247.637686 295.486443 
L 250.917025 295.487021 
L 254.196364 295.48747 
L 257.475702 295.487785 
L 260.755041 295.487963 
L 264.03438 295.488 
L 267.313719 295.487891 
L 270.593058 295.487631 
L 273.872397 295.487215 
L 277.151736 295.486636 
L 280.431074 295.485889 
L 283.710413 295.484965 
L 286.989752 295.483858 
L 290.269091 295.482559 
L 293.54843 295.481057 
L 296.827769 295.479343 
L 300.107107 295.477404 
L 303.386446 295.475229 
L 306.665785 295.472802 
L 309.945124 295.470108 
L 313.224463 295.467129 
L 316.503802 295.463845 
L 319.78314 295.460234 
L 323.062479 295.45627 
L 326.341818 295.451925 
L 329.621157 295.447165 
L 332.900496 295.441953 
L 336.179835 295.436247 
L 339.459174 295.429995 
L 342.738512 295.423139 
L 346.017851 295.41561 
L 349.29719 295.407326 
L 352.576529 295.398188 
L 355.855868 295.388076 
L 359.135207 295.376844 
L 362.414545 295.364307 
L 365.693884 295.350233 
L 368.973223 295.334316 
L 372.252562 295.316156 
L 375.531901 295.295198 
L 378.81124 295.270655 
L 382.090579 295.241346 
L 385.369917 295.205381 
L 388.649256 295.159425 
L 391.928595 295.096628 
L 395.207934 294.998195 
L 398.487273 292.704726 
" style="fill:none;stroke:#1f77b4;stroke-linecap:square;stroke-width:1.5;"/>
   </g>
   <g id="line2d_13">
    <path clip-path="url(#p4e4fb87805)" d="M 73.832727 288.939214 
L 77.112066 289.130342 
L 80.391405 289.032048 
L 83.670744 289.32693 
L 86.950083 289.070273 
L 90.229421 289.348774 
L 93.50876 289.272323 
L 96.788099 289.021126 
L 100.067438 289.228636 
L 103.346777 289.157646 
L 106.626116 289.436146 
L 109.905455 289.332391 
L 113.184793 289.332391 
L 116.464132 289.316009 
L 119.743471 289.299627 
L 123.02281 289.157646 
L 126.302149 289.157646 
L 129.581488 289.174028 
L 132.860826 289.223175 
L 136.140165 289.206793 
L 139.419504 289.32693 
L 142.698843 289.316009 
L 145.978182 289.228636 
L 149.257521 289.201332 
L 152.53686 289.32693 
L 155.816198 289.32693 
L 159.095537 289.152185 
L 162.374876 289.201332 
L 165.654215 289.294166 
L 168.933554 289.397921 
L 172.212893 288.950136 
L 175.492231 289.261401 
L 178.77157 289.386999 
L 182.050909 289.223175 
L 185.330248 289.376078 
L 188.609587 289.425225 
L 191.888926 289.283244 
L 195.168264 289.332391 
L 198.447603 289.305087 
L 201.726942 289.337852 
L 205.006281 289.299627 
L 208.28562 289.261401 
L 211.564959 289.18495 
L 214.844298 289.04843 
L 218.123636 289.223175 
L 221.402975 289.228636 
L 224.682314 289.064812 
L 227.961653 289.086655 
L 231.240992 289.108499 
L 234.520331 289.206793 
L 237.799669 289.103038 
L 241.079008 289.010204 
L 244.358347 289.097577 
L 247.637686 288.9829 
L 250.917025 289.250479 
L 254.196364 289.053891 
L 257.475702 288.993822 
L 260.755041 289.097577 
L 264.03438 288.879145 
L 267.313719 288.895528 
L 270.593058 288.900988 
L 273.872397 288.906449 
L 277.151736 288.7044 
L 280.431074 288.993822 
L 283.710413 288.720782 
L 286.989752 288.835459 
L 290.269091 288.720782 
L 293.54843 288.786312 
L 296.827769 288.720782 
L 300.107107 288.688017 
L 303.386446 288.617027 
L 306.665785 288.436821 
L 309.945124 288.169242 
L 313.224463 288.245693 
L 316.503802 288.152859 
L 319.78314 288.076408 
L 323.062479 288.22385 
L 326.341818 288.180163 
L 329.621157 287.786986 
L 332.900496 287.945349 
L 336.179835 288.185624 
L 339.459174 287.759682 
L 342.738512 287.601319 
L 346.017851 287.655927 
L 349.29719 286.694827 
L 352.576529 286.864112 
L 355.855868 286.820425 
L 359.135207 286.094139 
L 362.414545 285.706423 
L 365.693884 285.974002 
L 368.973223 285.149422 
L 372.252562 284.428597 
L 375.531901 284.663411 
L 378.81124 283.745997 
L 382.090579 283.505722 
L 385.369917 282.216975 
L 388.649256 279.825146 
L 391.928595 279.082478 
L 395.207934 277.608063 
L 398.487273 53.568 
" style="fill:none;stroke:#ff7f0e;stroke-linecap:square;stroke-width:1.5;"/>
   </g>
   <g id="patch_3">
    <path d="M 57.6 307.584 
L 57.6 41.472 
" style="fill:none;stroke:#000000;stroke-linecap:square;stroke-linejoin:miter;stroke-width:0.8;"/>
   </g>
   <g id="patch_4">
    <path d="M 414.72 307.584 
L 414.72 41.472 
" style="fill:none;stroke:#000000;stroke-linecap:square;stroke-linejoin:miter;stroke-width:0.8;"/>
   </g>
   <g id="patch_5">
    <path d="M 57.6 307.584 
L 414.72 307.584 
" style="fill:none;stroke:#000000;stroke-linecap:square;stroke-linejoin:miter;stroke-width:0.8;"/>
   </g>
   <g id="patch_6">
    <path d="M 57.6 41.472 
L 414.72 41.472 
" style="fill:none;stroke:#000000;stroke-linecap:square;stroke-linejoin:miter;stroke-width:0.8;"/>
   </g>
   <g id="text_14">
    <text style="font-family:DejaVu Sans;font-size:12px;font-style:normal;font-weight:normal;text-anchor:middle;" transform="rotate(-0, 236.16, 35.472)" x="236.16" y="35.472">Coin Flips for arcsin(x)/2</text>
   </g>
   <g id="legend_1">
    <g id="patch_7">
     <path d="M 64.6 78.82825 
L 252.535938 78.82825 
Q 254.535938 78.82825 254.535938 76.82825 
L 254.535938 48.472 
Q 254.535938 46.472 252.535938 46.472 
L 64.6 46.472 
Q 62.6 46.472 62.6 48.472 
L 62.6 76.82825 
Q 62.6 78.82825 64.6 78.82825 
z
" style="fill:#ffffff;opacity:0.8;stroke:#cccccc;stroke-linejoin:miter;"/>
    </g>
    <g id="line2d_14">
     <path d="M 66.6 54.570437 
L 86.6 54.570437 
" style="fill:none;stroke:#1f77b4;stroke-linecap:square;stroke-width:1.5;"/>
    </g>
    <g id="line2d_15"/>
    <g id="text_15">
     <text style="font-family:DejaVu Sans;font-size:10px;font-style:normal;font-weight:normal;text-anchor:start;" transform="rotate(-0, 94.6, 58.070437)" x="94.6" y="58.070437">Coin Flip Lower Bound (Mendo)</text>
    </g>
    <g id="line2d_16">
     <path d="M 66.6 69.248562 
L 86.6 69.248562 
" style="fill:none;stroke:#ff7f0e;stroke-linecap:square;stroke-width:1.5;"/>
    </g>
    <g id="line2d_17"/>
    <g id="text_16">
     <text style="font-family:DejaVu Sans;font-size:10px;font-style:normal;font-weight:normal;text-anchor:start;" transform="rotate(-0, 94.6, 72.748562)" x="94.6" y="72.748562">Avg. Coins Flipped arcsin(x)/2</text>
    </g>
   </g>
  </g>
 </g>
 <defs>
  <clipPath id="p4e4fb87805">
   <rect height="266.112" width="357.12" x="57.6" y="41.472"/>
  </clipPath>
 </defs>
</svg>

<svg height="460.8" viewBox="0 0 460.8 345.6" width="614.4" xmlns="http://www.w3.org/2000/svg" xmlns:xlink="http://www.w3.org/1999/xlink"><defs><style>*{stroke-linecap:butt;stroke-linejoin:round}</style></defs><g id="figure_1"><path d="M0 345.6h460.8V0H0z" fill="#fff" id="patch_1"/><g id="axes_1"><path d="M57.6 307.584h357.12V41.472H57.6z" fill="#fff" id="patch_2"/><g id="matplotlib.axis_1"><g id="xtick_1"><g id="line2d_1"><defs><path d="M0 0v3.5" id="m2d49245265" stroke="#000" stroke-width=".8"/></defs><use x="73.8" xlink:href="#m2d49245265" y="307.584" stroke="#000" stroke-width=".8"/></g><text x="73.8" y="322.182" font-family="DejaVu Sans" font-size="10" font-weight="400" text-anchor="middle" id="text_1">0.0</text></g><g id="xtick_2"><use x="138.744" xlink:href="#m2d49245265" y="307.584" stroke="#000" stroke-width=".8" id="line2d_2"/><text x="138.744" y="322.182" font-family="DejaVu Sans" font-size="10" font-weight="400" text-anchor="middle" id="text_2">0.2</text></g><g id="xtick_3"><use x="203.688" xlink:href="#m2d49245265" y="307.584" stroke="#000" stroke-width=".8" id="line2d_3"/><text x="203.688" y="322.182" font-family="DejaVu Sans" font-size="10" font-weight="400" text-anchor="middle" id="text_3">0.4</text></g><g id="xtick_4"><use x="268.632" xlink:href="#m2d49245265" y="307.584" stroke="#000" stroke-width=".8" id="line2d_4"/><text x="268.632" y="322.182" font-family="DejaVu Sans" font-size="10" font-weight="400" text-anchor="middle" id="text_4">0.6</text></g><g id="xtick_5"><use x="333.576" xlink:href="#m2d49245265" y="307.584" stroke="#000" stroke-width=".8" id="line2d_5"/><text x="333.576" y="322.182" font-family="DejaVu Sans" font-size="10" font-weight="400" text-anchor="middle" id="text_5">0.8</text></g><g id="xtick_6"><use x="398.52" xlink:href="#m2d49245265" y="307.584" stroke="#000" stroke-width=".8" id="line2d_6"/><text x="398.52" y="322.182" font-family="DejaVu Sans" font-size="10" font-weight="400" text-anchor="middle" id="text_6">1.0</text></g><text x="236.16" y="335.861" font-family="DejaVu Sans" font-size="10" font-weight="400" text-anchor="middle" id="text_7">Input Coin&apos;s Heads Probability (λ)</text></g><g id="matplotlib.axis_2"><g id="ytick_1"><g id="line2d_7"><defs><path d="M0 0h-3.5" id="m615b8740d9" stroke="#000" stroke-width=".8"/></defs><use x="57.6" xlink:href="#m615b8740d9" y="296.661" stroke="#000" stroke-width=".8"/></g><text x="50.6" y="300.46" font-family="DejaVu Sans" font-size="10" font-weight="400" text-anchor="end" id="text_8">0</text></g><g id="ytick_2"><use x="57.6" xlink:href="#m615b8740d9" y="242.053" stroke="#000" stroke-width=".8" id="line2d_8"/><text x="50.6" y="245.852" font-family="DejaVu Sans" font-size="10" font-weight="400" text-anchor="end" id="text_9">20</text></g><g id="ytick_3"><use x="57.6" xlink:href="#m615b8740d9" y="187.445" stroke="#000" stroke-width=".8" id="line2d_9"/><text x="50.6" y="191.244" font-family="DejaVu Sans" font-size="10" font-weight="400" text-anchor="end" id="text_10">40</text></g><g id="ytick_4"><use x="57.6" xlink:href="#m615b8740d9" y="132.837" stroke="#000" stroke-width=".8" id="line2d_10"/><text x="50.6" y="136.636" font-family="DejaVu Sans" font-size="10" font-weight="400" text-anchor="end" id="text_11">60</text></g><g id="ytick_5"><use x="57.6" xlink:href="#m615b8740d9" y="78.229" stroke="#000" stroke-width=".8" id="line2d_11"/><text x="50.6" y="82.028" font-family="DejaVu Sans" font-size="10" font-weight="400" text-anchor="end" id="text_12">80</text></g><text transform="rotate(-90 31.795 174.528)" x="31.795" y="174.528" font-family="DejaVu Sans" font-size="10" font-weight="400" text-anchor="middle" id="text_13">Coin Flips Needed</text></g><path clip-path="url(#p4e4fb87805)" d="M73.833 295.296l3.28.006 3.278.007 3.28.007 3.28.006 3.278.006 3.28.006 3.28.006 3.278.006 3.28.006 3.28.005 3.278.005 3.28.006 3.28.005 3.278.005 3.28.005 3.28.004 3.278.005 3.28.004 3.28.005 3.279.004 3.279.004 3.28.004 3.279.004 3.279.004 3.28.004 3.279.004 3.279.003 3.28.003 3.279.004 3.279.003 3.28.003 3.279.003 3.279.003 3.28.003 3.279.002 3.279.003 3.28.002 3.279.003 3.279.002 3.28.002 3.279.002 3.279.002 3.28.002 3.279.002 3.279.001 3.28.002 3.279.001 3.279.002h3.28l3.279.002h3.279l3.28.002h3.279l3.279.001H257.476l3.279.001H273.872l3.28-.001 3.28-.001 3.278-.001 3.28-.001 3.28-.001 3.278-.002 3.28-.002 3.28-.002 3.278-.002 3.28-.002 3.28-.003 3.278-.003 3.28-.003 3.28-.004 3.278-.004 3.28-.004 3.28-.005 3.278-.005 3.28-.006 3.28-.006 3.279-.007 3.279-.007 3.28-.009 3.279-.009 3.279-.01 3.28-.011 3.279-.013 3.279-.014 3.28-.016 3.279-.018 3.279-.02 3.28-.025 3.279-.03 3.279-.036 3.28-.046 3.279-.062 3.279-.099 3.28-2.293" fill="none" stroke="#1f77b4" stroke-linecap="square" stroke-width="1.5" id="line2d_12"/><path clip-path="url(#p4e4fb87805)" d="M73.833 288.94l3.28.19 3.278-.098 3.28.295 3.28-.257 3.278.279 3.28-.077 3.28-.25 3.278.207 3.28-.071 3.28.278 3.278-.104h3.28l3.28-.016 3.278-.016 3.28-.142h3.28l3.278.016 3.28.05 3.28-.017 3.279.12 3.279-.011 3.28-.087 3.279-.028 3.279.126h3.28l3.279-.175 3.279.05 3.28.092 3.279.104 3.279-.448 3.28.311 3.279.126 3.279-.164 3.28.153 3.279.05 3.279-.143 3.28.05 3.279-.028 3.279.033 3.28-.038 3.279-.039 3.279-.076 3.28-.137 3.279.175 3.279.006 3.28-.164 3.279.022 3.279.021 3.28.099 3.279-.104 3.279-.093 3.28.088 3.279-.115 3.279.267 3.28-.196 3.279-.06 3.279.104 3.28-.219 3.279.017 3.28.005 3.278.005 3.28-.202 3.28.29 3.278-.273 3.28.114 3.28-.114 3.278.065 3.28-.065 3.28-.033 3.278-.071 3.28-.18 3.28-.268 3.278.077 3.28-.093 3.28-.077 3.278.148 3.28-.044 3.28-.393 3.278.158 3.28.24 3.28-.425 3.279-.159 3.279.055 3.28-.961 3.279.17 3.279-.045 3.28-.726 3.279-.388 3.279.268 3.28-.825 3.279-.72 3.279.234 3.28-.917 3.279-.24 3.279-1.289 3.28-2.392 3.279-.743 3.279-1.474 3.28-224.04" fill="none" stroke="#ff7f0e" stroke-linecap="square" stroke-width="1.5" id="line2d_13"/><path d="M57.6 307.584V41.472" fill="none" stroke="#000" stroke-linecap="square" stroke-width=".8" id="patch_3"/><path d="M414.72 307.584V41.472" fill="none" stroke="#000" stroke-linecap="square" stroke-width=".8" id="patch_4"/><path d="M57.6 307.584h357.12" fill="none" stroke="#000" stroke-linecap="square" stroke-width=".8" id="patch_5"/><path d="M57.6 41.472h357.12" fill="none" stroke="#000" stroke-linecap="square" stroke-width=".8" id="patch_6"/><text x="236.16" y="35.472" font-family="DejaVu Sans" font-size="12" font-weight="400" text-anchor="middle" id="text_14">Coin Flips for arcsin(x)/2</text><g id="legend_1"><path d="M64.6 78.828h187.936q2 0 2-2V48.472q0-2-2-2H64.6q-2 0-2 2v28.356q0 2 2 2z" fill="#fff" opacity=".8" stroke="#ccc" id="patch_7"/><path d="M66.6 54.57h20" fill="none" stroke="#1f77b4" stroke-linecap="square" stroke-width="1.5" id="line2d_14"/><text x="94.6" y="58.07" font-family="DejaVu Sans" font-size="10" font-weight="400" id="text_15">Coin Flip Lower Bound (Mendo)</text><path d="M66.6 69.249h20" fill="none" stroke="#ff7f0e" stroke-linecap="square" stroke-width="1.5" id="line2d_16"/><text x="94.6" y="72.749" font-family="DejaVu Sans" font-size="10" font-weight="400" id="text_16">Avg. Coins Flipped arcsin(x)/2</text></g></g></g><defs><clipPath id="p4e4fb87805"><path d="M57.6 41.472h357.12v266.112H57.6z"/></clipPath></defs></svg>
